src/editor/lib/iconsets/blocks/svg/poster.svg

<?xml version="1.0" encoding="UTF-8"?><svg id="a" xmlns="http://www.w3.org/2000/svg" viewBox="0 0 24 24"><path d="M2,2.93V15.93H22V2.93H2Zm14.34,6l-1.78,1.73,.42,2.45c.08,.44-.39,.77-.78,.57l-2.2-1.16-2.2,1.16c-.39,.21-.86-.12-.78-.57l.42-2.45-1.78-1.73c-.32-.31-.14-.85,.3-.92l2.46-.36,1.1-2.23c.2-.4,.77-.4,.97,0l1.1,2.23,2.46,.36c.44,.06,.62,.61,.3,.92Z"/><path d="M2,17.07v4H22v-4H2Zm2.77,3.42v-1.01h-1.71v-.81h1.71v-1.01l2,1.42-2,1.42Z"/></svg>

<svg id="Layer_1" data-name="Layer 1" xmlns="http://www.w3.org/2000/svg" viewBox="0 0 24 24"><path d="M2,2.93v13H22v-13Zm14.34,6-1.78,1.73L15,13.11a.54.54,0,0,1-.78.57L12,12.52,9.8,13.68A.54.54,0,0,1,9,13.11l.42-2.45L7.66,8.93A.54.54,0,0,1,8,8l2.46-.36,1.1-2.22a.53.53,0,0,1,1,0l1.1,2.22L16,8A.54.54,0,0,1,16.34,8.93Z"/><path d="M2,17.07v4H22v-4Zm2.77,3.42v-1H3.06v-.81H4.77v-1l2,1.42Z"/></svg>
